X:1
T:Constantly Abiding
T:Constantly Abiding
T:Anne May Sebring Murphy
T:Anne May Sebring Murphy, 1908
T:Public Domain Courtesy of the Cyber Hymnal™
T:Public Domain Courtesy of the Cyber Hymnal™
C:Anne May Sebring Murphy
Z:Public Domain
Z:Courtesy of the Cyber Hymnal™
%%score ( 1 2 ) 3
L:1/8
Q:1/4=110
M:3/4
K:D
V:1 treble 
V:2 treble 
V:3 bass 
V:1
 D>[DE] | [DF]2 [DE]2 D2 | [FA]4 [DF]>[FA] | [Fd]2 [Gc]2 [Ad]2 | [GB]4 [GB]2 | [FA]2 [EG]2 [DF]2 | %6
w: 1.~There’s a|peace in my|heart that the|world nev- er|gave, A|peace it can-|
w: 2.~All the|world seemed to|sing of a|Sav- ior and|king, When|peace sweet- ly|
w: 3.~Th- is|tre- asure I|have in a|temp- le of|clay, While|here on His|
 [DA]2 [CG]2 [DF]2 | [CE]6 | D>[DE] | [DF]2 [DE]2 D2 | [FA]4 [DF]>[FA] | [Fd]2 [Gc]2 [Ad]2 | %12
w: not take a-|way;|Though the|tri- als of|life may sur-|round like a|
w: came to my|heart;|Trou- bles|all fled a-|way and my|night turned to|
w: foot- stool I|roam;|But He’s|com- ing to|take me some|glor- i- ous|
 [GB]4 [GB]>[GB] | [FA]2 [DF]2 [Fd]2 | [Ec]2 [CA]2 [DB]2 | [CA]6 || %16
w: cloud, I’ve a|peace that has|come here to|stay!|
w: day, Bless- èd|Je- sus, how|glor- ious Thou|art!|
w: day, O- ver|there to my|heav- en- ly|home!|
[M:4/4]"^Refrain" [DF]4- [DF]>[EG] [FA]>[GB] | [FA]4 [DF]4 | d4 [FA]2 [Ad]2 | c4- [Gc]4 | %20
w: ||||
w: Con- * stant- ly a-|bid- ing,|Je- sus is|mine; Con-|
w: ||||
 [EG]4- [EG]>[FA] [GB]>[Ac] | [GB]4 [EG]4 | [Gc]4 [GB]2 [EG]2 | [DF]8 | [FA]4 [DF]>[EG] [FA]>[GB] | %25
w: |||||
w: * * stant- ly a-|bid- ing,|rap- ture di-|vine;|He nev- er leaves me|
w: |||||
 [FA]4 [DF]4 | [Fd]2 [Fc]2 [Fe]2 [Ad]2 | [GB]8 | [Bd]3 [Bd] [Ac]2 [GB]2 | d4 A4 | A4 [EG]2 E2 | %31
w: ||||||
w: lone- ly,|whis- pers, O so|kind:|“I will nev- er|leave thee,”|Je- sus is|
w: ||||||
 D6 |] %32
w: |
w: mine.|
w: |
V:2
 D3/2 x/ | x4 D2 | x6 | x6 | x6 | x6 | x6 | x6 | D3/2 x/ | x4 D2 | x6 | x6 | x6 | x6 | x6 | x6 || %16
[M:4/4] x8 | x8 | (F2 F>F) x4 | G2 G>G x4 | x8 | x8 | x8 | x8 | x8 | x8 | x8 | x8 | x8 | %29
 (A2 G2) (F2 F2) | (F2 F2) (C>C) x2 | D6 |] %32
V:3
 [D,F,]>[D,G,] | [D,A,]2 [D,G,]2 [D,F,]2 | [D,D]4 [D,A,]>[D,D] | [D,A,]2 [E,A,]2 [F,D]2 | %4
 [G,D]4 [G,D]2 | [D,D]2 [D,A,]2 [D,A,]2 | [F,A,]2 [E,A,]2 [D,A,]2 | [A,,A,]6 | [D,F,]>[D,G,] | %9
 [D,A,]2 [D,G,]2 [D,F,]2 | [D,D]4 [D,A,]>[D,D] | [D,A,]2 [E,A,]2 [F,D]2 | [G,D]4 [G,D]>[G,D] | %13
 [D,D]2 [D,A,]2 [D,A,]2 | [E,A,]2 [E,A,]2 [E,^G,]2 | [A,,A,]6 || %16
[M:4/4] ([D,A,]>[D,A,][D,A,]>[D,A,] [D,A,]2) [D,D]2 | ([D,D]>[D,D][D,D]>[D,D]) ([D,A,]2 [D,A,]2) | %18
 ([D,A,]2 [D,A,]>[D,A,]) [D,D]2 [F,D]2 | ([A,E]2 [A,E]>[A,E] [A,E]4) | %20
 ([A,,C]>[A,,C][A,,C]>[A,,C] [A,,C]2) [A,,C]2 | ([A,,C]>[A,,C][A,,C]>[A,,C]) ([A,,C]2 [A,,C]2) | %22
 ([A,,A,]2 [A,,A,]>[A,,A,]) [A,,C]2 [A,,A,]2 | ([D,A,]2 [D,A,]>[D,A,] [D,A,]4) | %24
 ([D,D]2 [D,D]>[D,D]) [D,A,]2 [D,D]2 | ([D,D]>[D,D][D,D]>[D,D]) ([D,A,]2 [D,A,]2) | %26
 [D,A,]2 [D,A,]2 [D,A,]2 [F,D]2 | ([G,D]2 [G,D]2 [G,D]4) | [G,D]3 [G,D] [G,D]2 [G,D]2 | %29
 ([F,D]2 [E,A,]2) ([D,D]2 [D,D]2) | ([A,,D]2 [A,,D]2) [A,,C]2 ([A,,A,]>[A,,G,]) | [D,F,]6 |] %32

